symbols/web/contact_support/materialsymbolsoutlined/contact_support_wght700grad200_20px.svg

<svg xmlns="http://www.w3.org/2000/svg" height="20" width="20"><path d="m8.958 19.688-.062-3.167-.208-.021q-3.105-.354-5.188-2.677Q1.417 11.5 1.417 8.354q0-3.396 2.385-5.76Q6.188.229 9.583.229q1.688 0 3.167.646 1.479.646 2.583 1.75 1.105 1.104 1.75 2.594.646 1.489.646 3.177 0 3.687-2.479 6.594-2.479 2.906-6.292 4.698Zm.646-6.5q.5 0 .844-.344t.344-.844q0-.479-.344-.833-.344-.355-.844-.355-.479 0-.833.344T8.417 12q0 .479.343.833.344.355.844.355Zm-.958-2.855h1.833q0-.562.209-.968.208-.407.645-.844.521-.521.74-.927.219-.406.219-.969 0-1.167-.677-1.802t-1.927-.635q-.959 0-1.761.635-.802.635-1.135 1.615l1.75.666q.208-.479.51-.76.302-.282.594-.282.354 0 .562.126.209.124.209.437 0 .208-.167.469-.167.26-.479.531-.667.604-.896 1.146-.229.541-.229 1.562Zm3 3.438v1.187q1.604-1.354 2.448-3.041.844-1.688.844-3.521 0-2.229-1.563-3.802T9.583 3.021q-2.229 0-3.802 1.573T4.208 8.396q0 2.25 1.563 3.812 1.562 1.563 3.812 1.563ZM9.583 8.979Z"/></svg>

<svg xmlns="http://www.w3.org/2000/svg" height="20" width="20"><path d="M8.958 19.688 8.896 16.521 8.688 16.5Q5.583 16.146 3.5 13.823Q1.417 11.5 1.417 8.354Q1.417 4.958 3.802 2.594Q6.188 0.229 9.583 0.229Q11.271 0.229 12.75 0.875Q14.229 1.521 15.333 2.625Q16.438 3.729 17.083 5.219Q17.729 6.708 17.729 8.396Q17.729 12.083 15.25 14.99Q12.771 17.896 8.958 19.688ZM9.604 13.188Q10.104 13.188 10.448 12.844Q10.792 12.5 10.792 12Q10.792 11.521 10.448 11.167Q10.104 10.812 9.604 10.812Q9.125 10.812 8.771 11.156Q8.417 11.5 8.417 12Q8.417 12.479 8.76 12.833Q9.104 13.188 9.604 13.188ZM8.646 10.333H10.479Q10.479 9.771 10.688 9.365Q10.896 8.958 11.333 8.521Q11.854 8 12.073 7.594Q12.292 7.188 12.292 6.625Q12.292 5.458 11.615 4.823Q10.938 4.188 9.688 4.188Q8.729 4.188 7.927 4.823Q7.125 5.458 6.792 6.438L8.542 7.104Q8.75 6.625 9.052 6.344Q9.354 6.062 9.646 6.062Q10 6.062 10.208 6.188Q10.417 6.312 10.417 6.625Q10.417 6.833 10.25 7.094Q10.083 7.354 9.771 7.625Q9.104 8.229 8.875 8.771Q8.646 9.312 8.646 10.333ZM11.646 13.771V14.958Q13.25 13.604 14.094 11.917Q14.938 10.229 14.938 8.396Q14.938 6.167 13.375 4.594Q11.812 3.021 9.583 3.021Q7.354 3.021 5.781 4.594Q4.208 6.167 4.208 8.396Q4.208 10.646 5.771 12.208Q7.333 13.771 9.583 13.771ZM9.583 8.979Q9.583 8.979 9.583 8.979Q9.583 8.979 9.583 8.979Q9.583 8.979 9.583 8.979Q9.583 8.979 9.583 8.979Q9.583 8.979 9.583 8.979Q9.583 8.979 9.583 8.979Q9.583 8.979 9.583 8.979Q9.583 8.979 9.583 8.979Z"/></svg>
